!!!OTL: AUF GEBET UNS DAS PFINGSTEI
!!!ARE: Europa, Mitteleuropa, Deutschland
!!!SCT: Z0112
!!!YEM: Copyright 1995, estate of Helmut Schaffrath.
**kern
*ICvox
*Ivox
*M2/4
*k[b-e-]
*g:
{8d
=1
8g
8a
8b-
8cc
=2
4dd
4cc}
=3
{4ffn
8ee
8dd
=4
8ee
8cc#
8dd}
{8ee-
=5
8dd
8cc
8b-
8a
=6
8b-
8a
4g}
=7
{4g
8g
8f#
=8
8g
8a
4b-}
=9
{8dd
8cc
8b-
8a
=10
8b-
8a
8g}
==
!!!AGN: Sagen - Lied, Romanze
!!!ONB: ESAC (Essen Associative Code) Database: ZUCCAL
!!!AMT: simple duple
!!!AIN: vox
!!!EED: Helmut Schaffrath
!!!EEV: 1.0
*-
